( pcb2gcode 1.1.4 )

( This file uses 4 drill bit sizes. )

G94     ( Inches per minute feed rate. )
G20     ( Units == INCHES.             )
G90     ( Absolute coordinates.        )
S300  ( RPM spindle speed.           )

G00 Z1.00000 ( Retract )
T1
M5      ( Spindle stop.                )
M6      ( Tool change.                 )
(MSG, CHANGE TOOL BIT: to drill size 0.59900 mm)
M0      ( Temporary machine stop.      )
M3      ( Spindle on clockwise.        )

G81 R1.00000 Z0.00100 F1.00000 X0.07091 Y0.09201
X0.12091 Y0.09201
X0.22091 Y0.09201
X0.27091 Y0.09201


G00 Z1.00000 ( Retract )
T2
M5      ( Spindle stop.                )
M6      ( Tool change.                 )
(MSG, CHANGE TOOL BIT: to drill size 0.63500 mm)
M0      ( Temporary machine stop.      )
M3      ( Spindle on clockwise.        )

G81 R1.00000 Z0.00100 F1.00000 X0.21661 Y0.46461
X0.27370 Y0.46850


G00 Z1.00000 ( Retract )
T3
M5      ( Spindle stop.                )
M6      ( Tool change.                 )
(MSG, CHANGE TOOL BIT: to drill size 1.01600 mm)
M0      ( Temporary machine stop.      )
M3      ( Spindle on clockwise.        )

G81 R1.00000 Z0.00100 F1.00000 X0.21091 Y0.91201
X0.31091 Y0.91201
X0.41091 Y0.91201
X0.51091 Y0.91201


G00 Z1.00000 ( Retract )
T4
M5      ( Spindle stop.                )
M6      ( Tool change.                 )
(MSG, CHANGE TOOL BIT: to drill size 3.00000 mm)
M0      ( Temporary machine stop.      )
M3      ( Spindle on clockwise.        )

G81 R1.00000 Z0.00100 F1.00000 X0.47252 Y0.68902
X0.47252 Y0.29531


G00 Z1.00000 ( All done -- retract )

M9 ( Coolant off. )
M2 ( Program end. )

