( pcb2gcode 1.1.4 )

G94     ( Inches per minute feed rate. )
G20     ( Units == INCHES.             )
G90     ( Absolute coordinates.        )
S2000  ( RPM spindle speed.           )
M3      ( Spindle on clockwise.        )

G64 P0.00500 ( set maximum deviation from commanded toolpath )

G04 P0 ( dwell for no time -- G64 should not smooth over this point )
G00 Z1.00000 ( retract )

G00 X0.58600 Y1.12170 ( rapid move to begin. )
G01 Z0.00100 F2.00000 ( plunge. )
G04 P0 ( dwell for no time -- G64 should not smooth over this point )
X0.58600 Y1.12170
X0.58800 Y1.12170
X0.58800 Y1.12070
X0.58900 Y1.12070
X0.58900 Y1.11970
X0.59000 Y1.11970
X0.59000 Y1.11770
X0.59100 Y1.11770
X0.59100 Y1.04770
X0.59000 Y1.04770
X0.59000 Y0.02570
X0.58900 Y0.02570
X0.58900 Y0.02370
X0.58800 Y0.02370
X0.58800 Y0.02270
X0.04600 Y0.02270
X0.04600 Y0.02370
X0.04400 Y0.02370
X0.04400 Y0.02470
X0.04300 Y0.02470
X0.04300 Y0.02570
X0.04200 Y0.02570
X0.04200 Y0.02770
X0.04100 Y0.02770
X0.04100 Y0.99770
X0.04200 Y0.99770
X0.04200 Y0.99970
X0.04300 Y0.99970
X0.04300 Y1.00070
X0.04400 Y1.00070
X0.04400 Y1.00170
X0.04500 Y1.00170
X0.04500 Y1.00270
X0.04600 Y1.00270
X0.04600 Y1.00370
X0.04700 Y1.00370
X0.04700 Y1.00470
X0.04800 Y1.00470
X0.04800 Y1.00570
X0.04900 Y1.00570
X0.04900 Y1.00670
X0.05000 Y1.00670
X0.05000 Y1.00770
X0.05100 Y1.00770
X0.05100 Y1.00870
X0.05200 Y1.00870
X0.05200 Y1.00970
X0.05300 Y1.00970
X0.05300 Y1.01070
X0.05400 Y1.01070
X0.05400 Y1.01170
X0.05500 Y1.01170
X0.05500 Y1.01270
X0.05600 Y1.01270
X0.05600 Y1.01370
X0.05700 Y1.01370
X0.05700 Y1.01470
X0.05800 Y1.01470
X0.05800 Y1.01570
X0.05900 Y1.01570
X0.05900 Y1.01670
X0.06000 Y1.01670
X0.06000 Y1.01770
X0.06100 Y1.01770
X0.06100 Y1.01870
X0.06200 Y1.01870
X0.06200 Y1.01970
X0.06300 Y1.01970
X0.06300 Y1.02070
X0.06400 Y1.02070
X0.06400 Y1.02170
X0.06500 Y1.02170
X0.06500 Y1.02270
X0.06600 Y1.02270
X0.06600 Y1.02370
X0.06700 Y1.02370
X0.06700 Y1.02470
X0.06800 Y1.02470
X0.06800 Y1.02570
X0.06900 Y1.02570
X0.06900 Y1.02670
X0.07000 Y1.02670
X0.07000 Y1.02770
X0.07100 Y1.02770
X0.07100 Y1.02870
X0.07200 Y1.02870
X0.07200 Y1.02970
X0.07300 Y1.02970
X0.07300 Y1.03070
X0.07400 Y1.03070
X0.07400 Y1.03170
X0.07500 Y1.03170
X0.07500 Y1.03270
X0.07600 Y1.03270
X0.07600 Y1.03370
X0.07700 Y1.03370
X0.07700 Y1.03470
X0.07800 Y1.03470
X0.07800 Y1.03570
X0.07900 Y1.03570
X0.07900 Y1.03670
X0.08000 Y1.03670
X0.08000 Y1.03770
X0.08100 Y1.03770
X0.08100 Y1.03870
X0.08200 Y1.03870
X0.08200 Y1.03970
X0.08300 Y1.03970
X0.08300 Y1.04070
X0.08400 Y1.04070
X0.08400 Y1.04170
X0.08500 Y1.04170
X0.08500 Y1.04270
X0.08600 Y1.04270
X0.08600 Y1.04370
X0.08700 Y1.04370
X0.08700 Y1.04470
X0.08800 Y1.04470
X0.08800 Y1.04570
X0.08900 Y1.04570
X0.08900 Y1.04670
X0.09000 Y1.04670
X0.09000 Y1.04770
X0.09100 Y1.04770
X0.09100 Y1.04870
X0.09200 Y1.04870
X0.09200 Y1.04970
X0.09300 Y1.04970
X0.09300 Y1.05070
X0.09400 Y1.05070
X0.09400 Y1.05170
X0.09500 Y1.05170
X0.09500 Y1.05270
X0.09600 Y1.05270
X0.09600 Y1.05370
X0.09700 Y1.05370
X0.09700 Y1.05470
X0.09800 Y1.05470
X0.09800 Y1.05570
X0.09900 Y1.05570
X0.09900 Y1.05670
X0.10000 Y1.05670
X0.10000 Y1.05770
X0.10100 Y1.05770
X0.10100 Y1.05870
X0.10200 Y1.05870
X0.10200 Y1.05970
X0.10300 Y1.05970
X0.10300 Y1.06070
X0.10400 Y1.06070
X0.10400 Y1.06170
X0.10500 Y1.06170
X0.10500 Y1.06270
X0.10600 Y1.06270
X0.10600 Y1.06370
X0.10700 Y1.06370
X0.10700 Y1.06470
X0.10800 Y1.06470
X0.10800 Y1.06570
X0.10900 Y1.06570
X0.10900 Y1.06670
X0.11000 Y1.06670
X0.11000 Y1.06770
X0.11100 Y1.06770
X0.11100 Y1.06870
X0.11200 Y1.06870
X0.11200 Y1.06970
X0.11300 Y1.06970
X0.11300 Y1.07070
X0.11400 Y1.07070
X0.11400 Y1.07170
X0.11500 Y1.07170
X0.11500 Y1.07270
X0.11600 Y1.07270
X0.11600 Y1.07370
X0.11700 Y1.07370
X0.11700 Y1.07470
X0.11800 Y1.07470
X0.11800 Y1.07570
X0.11900 Y1.07570
X0.11900 Y1.07670
X0.12000 Y1.07670
X0.12000 Y1.07770
X0.12100 Y1.07770
X0.12100 Y1.07870
X0.12200 Y1.07870
X0.12200 Y1.07970
X0.12300 Y1.07970
X0.12300 Y1.08070
X0.12400 Y1.08070
X0.12400 Y1.08170
X0.12500 Y1.08170
X0.12500 Y1.08270
X0.12600 Y1.08270
X0.12600 Y1.08370
X0.12700 Y1.08370
X0.12700 Y1.08470
X0.12800 Y1.08470
X0.12800 Y1.08570
X0.12900 Y1.08570
X0.12900 Y1.08670
X0.13000 Y1.08670
X0.13000 Y1.08770
X0.13100 Y1.08770
X0.13100 Y1.08870
X0.13200 Y1.08870
X0.13200 Y1.08970
X0.13300 Y1.08970
X0.13300 Y1.09070
X0.13400 Y1.09070
X0.13400 Y1.09170
X0.13500 Y1.09170
X0.13500 Y1.09270
X0.13600 Y1.09270
X0.13600 Y1.09370
X0.13700 Y1.09370
X0.13700 Y1.09470
X0.13800 Y1.09470
X0.13800 Y1.09570
X0.13900 Y1.09570
X0.13900 Y1.09670
X0.14000 Y1.09670
X0.14000 Y1.09770
X0.14100 Y1.09770
X0.14100 Y1.09870
X0.14200 Y1.09870
X0.14200 Y1.09970
X0.14300 Y1.09970
X0.14300 Y1.10070
X0.14400 Y1.10070
X0.14400 Y1.10170
X0.14500 Y1.10170
X0.14500 Y1.10270
X0.14600 Y1.10270
X0.14600 Y1.10370
X0.14700 Y1.10370
X0.14700 Y1.10470
X0.14800 Y1.10470
X0.14800 Y1.10570
X0.14900 Y1.10570
X0.14900 Y1.10670
X0.15000 Y1.10670
X0.15000 Y1.10770
X0.15100 Y1.10770
X0.15100 Y1.10870
X0.15200 Y1.10870
X0.15200 Y1.10970
X0.15300 Y1.10970
X0.15300 Y1.11070
X0.15400 Y1.11070
X0.15400 Y1.11170
X0.15500 Y1.11170
X0.15500 Y1.11270
X0.15600 Y1.11270
X0.15600 Y1.11370
X0.15700 Y1.11370
X0.15700 Y1.11470
X0.15800 Y1.11470
X0.15800 Y1.11570
X0.15900 Y1.11570
X0.15900 Y1.11670
X0.16000 Y1.11670
X0.16000 Y1.11770
X0.16100 Y1.11770
X0.16100 Y1.11870
X0.16200 Y1.11870
X0.16200 Y1.11970
X0.16300 Y1.11970
X0.16300 Y1.12070
X0.16400 Y1.12070
X0.16400 Y1.12170
X0.16600 Y1.12170
X0.16600 Y1.12270
X0.58600 Y1.12270
X0.58600 Y1.12170
G04 P0 ( dwell for no time -- G64 should not smooth over this point )
G00 Z1.00000 ( retract )

G00 X0.57200 Y1.09470 ( rapid move to begin. )
G01 Z0.00100 F2.00000 ( plunge. )
G04 P0 ( dwell for no time -- G64 should not smooth over this point )
X0.57200 Y1.09470
X0.57200 Y1.09270
X0.57100 Y1.09270
X0.57100 Y0.96570
X0.57000 Y0.96570
X0.57000 Y0.96470
X0.56900 Y0.96470
X0.56900 Y0.96370
X0.56800 Y0.96370
X0.56800 Y0.96270
X0.54700 Y0.96270
X0.54700 Y0.96370
X0.53500 Y0.96370
X0.53500 Y0.96070
X0.55800 Y0.96070
X0.55800 Y0.86570
X0.53500 Y0.86570
X0.53500 Y0.86270
X0.54700 Y0.86270
X0.54700 Y0.86370
X0.56800 Y0.86370
X0.56800 Y0.86270
X0.56900 Y0.86270
X0.56900 Y0.86170
X0.57000 Y0.86170
X0.57000 Y0.86070
X0.57100 Y0.86070
X0.57100 Y0.78870
X0.57000 Y0.78870
X0.57000 Y0.78770
X0.56900 Y0.78770
X0.56900 Y0.78670
X0.56800 Y0.78670
X0.56800 Y0.78570
X0.52100 Y0.78570
X0.52100 Y0.78670
X0.52000 Y0.78670
X0.52000 Y0.78770
X0.51800 Y0.78770
X0.51800 Y0.78870
X0.51500 Y0.78870
X0.51500 Y0.78970
X0.51200 Y0.78970
X0.51200 Y0.79070
X0.50800 Y0.79070
X0.50800 Y0.79170
X0.50500 Y0.79170
X0.50500 Y0.79270
X0.50300 Y0.79270
X0.50300 Y0.79370
X0.50000 Y0.79370
X0.50000 Y0.79470
X0.49800 Y0.79470
X0.49800 Y0.79570
X0.49500 Y0.79570
X0.49500 Y0.79670
X0.49300 Y0.79670
X0.49300 Y0.79770
X0.49100 Y0.79770
X0.49100 Y0.79870
X0.48800 Y0.79870
X0.48800 Y0.79970
X0.45600 Y0.79970
X0.45600 Y0.79870
X0.45300 Y0.79870
X0.45300 Y0.79770
X0.45100 Y0.79770
X0.45100 Y0.79670
X0.44800 Y0.79670
X0.44800 Y0.79570
X0.44500 Y0.79570
X0.44500 Y0.79470
X0.44300 Y0.79470
X0.44300 Y0.79370
X0.44000 Y0.79370
X0.44000 Y0.79270
X0.43800 Y0.79270
X0.43800 Y0.79170
X0.43500 Y0.79170
X0.43500 Y0.79070
X0.43100 Y0.79070
X0.43100 Y0.78970
X0.42800 Y0.78970
X0.42800 Y0.78870
X0.42500 Y0.78870
X0.42500 Y0.78770
X0.42300 Y0.78770
X0.42300 Y0.78670
X0.42200 Y0.78670
X0.42200 Y0.78570
X0.42000 Y0.78570
X0.42000 Y0.78470
X0.41700 Y0.78470
X0.41700 Y0.78370
X0.41500 Y0.78370
X0.41500 Y0.78270
X0.41300 Y0.78270
X0.41300 Y0.78170
X0.41200 Y0.78170
X0.41200 Y0.78070
X0.41100 Y0.78070
X0.41100 Y0.77970
X0.40900 Y0.77970
X0.40900 Y0.77870
X0.40800 Y0.77870
X0.40800 Y0.77770
X0.40600 Y0.77770
X0.40600 Y0.77670
X0.40500 Y0.77670
X0.40500 Y0.77570
X0.40400 Y0.77570
X0.40400 Y0.77470
X0.40300 Y0.77470
X0.40300 Y0.77370
X0.40200 Y0.77370
X0.40200 Y0.77270
X0.40100 Y0.77270
X0.40100 Y0.77170
X0.40000 Y0.77170
X0.40000 Y0.77070
X0.39900 Y0.77070
X0.39900 Y0.76970
X0.39800 Y0.76970
X0.39800 Y0.76870
X0.39700 Y0.76870
X0.39700 Y0.76770
X0.39600 Y0.76770
X0.39600 Y0.76670
X0.39500 Y0.76670
X0.39500 Y0.76570
X0.39400 Y0.76570
X0.39400 Y0.76470
X0.39300 Y0.76470
X0.39300 Y0.76370
X0.39200 Y0.76370
X0.39200 Y0.76270
X0.39100 Y0.76270
X0.39100 Y0.76170
X0.39000 Y0.76170
X0.39000 Y0.76070
X0.38900 Y0.76070
X0.38900 Y0.75970
X0.38800 Y0.75970
X0.38800 Y0.75870
X0.38700 Y0.75870
X0.38700 Y0.75770
X0.38600 Y0.75770
X0.38600 Y0.75670
X0.38500 Y0.75670
X0.38500 Y0.75570
X0.38400 Y0.75570
X0.38400 Y0.75370
X0.38300 Y0.75370
X0.38300 Y0.75270
X0.38200 Y0.75270
X0.38200 Y0.75070
X0.38100 Y0.75070
X0.38100 Y0.74970
X0.38000 Y0.74970
X0.38000 Y0.74770
X0.37900 Y0.74770
X0.37900 Y0.74570
X0.37800 Y0.74570
X0.37800 Y0.74370
X0.37700 Y0.74370
X0.37700 Y0.74170
X0.37600 Y0.74170
X0.37600 Y0.73970
X0.37500 Y0.73970
X0.37500 Y0.73870
X0.37400 Y0.73870
X0.37400 Y0.73670
X0.37300 Y0.73670
X0.37300 Y0.73370
X0.37200 Y0.73370
X0.37200 Y0.73070
X0.37100 Y0.73070
X0.37100 Y0.72670
X0.37000 Y0.72670
X0.37000 Y0.72370
X0.36900 Y0.72370
X0.36900 Y0.71570
X0.36800 Y0.71570
X0.36800 Y0.66470
X0.36900 Y0.66470
X0.36900 Y0.65670
X0.37000 Y0.65670
X0.37000 Y0.65370
X0.37100 Y0.65370
X0.37100 Y0.64970
X0.37200 Y0.64970
X0.37200 Y0.64670
X0.37300 Y0.64670
X0.37300 Y0.64370
X0.37400 Y0.64370
X0.37400 Y0.64170
X0.37500 Y0.64170
X0.37500 Y0.64070
X0.37600 Y0.64070
X0.37600 Y0.63870
X0.37700 Y0.63870
X0.37700 Y0.63570
X0.37800 Y0.63570
X0.37800 Y0.63370
X0.37900 Y0.63370
X0.37900 Y0.63170
X0.38000 Y0.63170
X0.38000 Y0.63070
X0.38100 Y0.63070
X0.38100 Y0.62970
X0.38200 Y0.62970
X0.38200 Y0.62770
X0.38300 Y0.62770
X0.38300 Y0.62670
X0.38400 Y0.62670
X0.38400 Y0.62470
X0.38500 Y0.62470
X0.38500 Y0.62370
X0.38600 Y0.62370
X0.38600 Y0.62270
X0.38700 Y0.62270
X0.38700 Y0.62170
X0.38800 Y0.62170
X0.38800 Y0.62070
X0.38900 Y0.62070
X0.38900 Y0.61970
X0.39000 Y0.61970
X0.39000 Y0.61870
X0.39100 Y0.61870
X0.39100 Y0.61770
X0.39200 Y0.61770
X0.39200 Y0.61670
X0.39300 Y0.61670
X0.39300 Y0.61570
X0.39400 Y0.61570
X0.39400 Y0.61470
X0.39500 Y0.61470
X0.39500 Y0.61370
X0.39600 Y0.61370
X0.39600 Y0.61270
X0.39700 Y0.61270
X0.39700 Y0.61170
X0.39800 Y0.61170
X0.39800 Y0.61070
X0.39900 Y0.61070
X0.39900 Y0.60970
X0.40000 Y0.60970
X0.40000 Y0.60870
X0.40100 Y0.60870
X0.40100 Y0.60770
X0.40200 Y0.60770
X0.40200 Y0.60670
X0.40300 Y0.60670
X0.40300 Y0.60570
X0.40400 Y0.60570
X0.40400 Y0.60470
X0.40500 Y0.60470
X0.40500 Y0.60370
X0.40600 Y0.60370
X0.40600 Y0.60270
X0.40800 Y0.60270
X0.40800 Y0.60170
X0.40900 Y0.60170
X0.40900 Y0.60070
X0.41100 Y0.60070
X0.41100 Y0.59970
X0.41200 Y0.59970
X0.41200 Y0.59870
X0.41300 Y0.59870
X0.41300 Y0.59770
X0.41500 Y0.59770
X0.41500 Y0.59670
X0.41700 Y0.59670
X0.41700 Y0.59570
X0.42000 Y0.59570
X0.42000 Y0.59470
X0.42200 Y0.59470
X0.42200 Y0.59370
X0.42300 Y0.59370
X0.42300 Y0.59270
X0.42500 Y0.59270
X0.42500 Y0.59170
X0.42800 Y0.59170
X0.42800 Y0.59070
X0.43100 Y0.59070
X0.43100 Y0.58970
X0.43300 Y0.58970
X0.43300 Y0.58870
X0.43400 Y0.58870
X0.43400 Y0.58770
X0.43500 Y0.58770
X0.43500 Y0.39870
X0.43400 Y0.39870
X0.43400 Y0.39770
X0.43300 Y0.39770
X0.43300 Y0.39670
X0.43100 Y0.39670
X0.43100 Y0.39570
X0.42800 Y0.39570
X0.42800 Y0.39470
X0.42500 Y0.39470
X0.42500 Y0.39370
X0.42300 Y0.39370
X0.42300 Y0.39270
X0.42200 Y0.39270
X0.42200 Y0.39170
X0.42000 Y0.39170
X0.42000 Y0.39070
X0.41700 Y0.39070
X0.41700 Y0.38970
X0.41500 Y0.38970
X0.41500 Y0.38870
X0.41300 Y0.38870
X0.41300 Y0.38770
X0.41200 Y0.38770
X0.41200 Y0.38670
X0.41100 Y0.38670
X0.41100 Y0.38570
X0.40900 Y0.38570
X0.40900 Y0.38470
X0.40800 Y0.38470
X0.40800 Y0.38370
X0.40600 Y0.38370
X0.40600 Y0.38270
X0.40500 Y0.38270
X0.40500 Y0.38170
X0.40400 Y0.38170
X0.40400 Y0.38070
X0.40300 Y0.38070
X0.40300 Y0.37970
X0.40200 Y0.37970
X0.40200 Y0.37870
X0.40100 Y0.37870
X0.40100 Y0.37770
X0.40000 Y0.37770
X0.40000 Y0.37670
X0.39900 Y0.37670
X0.39900 Y0.37570
X0.39800 Y0.37570
X0.39800 Y0.37470
X0.39700 Y0.37470
X0.39700 Y0.37370
X0.39600 Y0.37370
X0.39600 Y0.37270
X0.39500 Y0.37270
X0.39500 Y0.37170
X0.39400 Y0.37170
X0.39400 Y0.37070
X0.39300 Y0.37070
X0.39300 Y0.36970
X0.39200 Y0.36970
X0.39200 Y0.36870
X0.39100 Y0.36870
X0.39100 Y0.36770
X0.39000 Y0.36770
X0.39000 Y0.36670
X0.38900 Y0.36670
X0.38900 Y0.36570
X0.38800 Y0.36570
X0.38800 Y0.36470
X0.38700 Y0.36470
X0.38700 Y0.36370
X0.38600 Y0.36370
X0.38600 Y0.36270
X0.38500 Y0.36270
X0.38500 Y0.36170
X0.38400 Y0.36170
X0.38400 Y0.35970
X0.38300 Y0.35970
X0.38300 Y0.35870
X0.38200 Y0.35870
X0.38200 Y0.35670
X0.38100 Y0.35670
X0.38100 Y0.35570
X0.38000 Y0.35570
X0.38000 Y0.35370
X0.37900 Y0.35370
X0.37900 Y0.35170
X0.37800 Y0.35170
X0.37800 Y0.34970
X0.37700 Y0.34970
X0.37700 Y0.34770
X0.37600 Y0.34770
X0.37600 Y0.34570
X0.37500 Y0.34570
X0.37500 Y0.34470
X0.37400 Y0.34470
X0.37400 Y0.34270
X0.37300 Y0.34270
X0.37300 Y0.33970
X0.37200 Y0.33970
X0.37200 Y0.33670
X0.37100 Y0.33670
X0.37100 Y0.32870
X0.37000 Y0.32870
X0.37000 Y0.32070
X0.36900 Y0.32070
X0.36900 Y0.31070
X0.36800 Y0.31070
X0.36800 Y0.28170
X0.36900 Y0.28170
X0.36900 Y0.26270
X0.37000 Y0.26270
X0.37000 Y0.25970
X0.37100 Y0.25970
X0.37100 Y0.25570
X0.37200 Y0.25570
X0.37200 Y0.25270
X0.37300 Y0.25270
X0.37300 Y0.24970
X0.37400 Y0.24970
X0.37400 Y0.24770
X0.37500 Y0.24770
X0.37500 Y0.24670
X0.37600 Y0.24670
X0.37600 Y0.24470
X0.37700 Y0.24470
X0.37700 Y0.24170
X0.37800 Y0.24170
X0.37800 Y0.23970
X0.37900 Y0.23970
X0.37900 Y0.23770
X0.38000 Y0.23770
X0.38000 Y0.23670
X0.38100 Y0.23670
X0.38100 Y0.23570
X0.38200 Y0.23570
X0.38200 Y0.23370
X0.38300 Y0.23370
X0.38300 Y0.23270
X0.38400 Y0.23270
X0.38400 Y0.23070
X0.38500 Y0.23070
X0.38500 Y0.22970
X0.38600 Y0.22970
X0.38600 Y0.22870
X0.38700 Y0.22870
X0.38700 Y0.22770
X0.38800 Y0.22770
X0.38800 Y0.22670
X0.38900 Y0.22670
X0.38900 Y0.22570
X0.39000 Y0.22570
X0.39000 Y0.22470
X0.39100 Y0.22470
X0.39100 Y0.22370
X0.39200 Y0.22370
X0.39200 Y0.22270
X0.39300 Y0.22270
X0.39300 Y0.22170
X0.39400 Y0.22170
X0.39400 Y0.22070
X0.39500 Y0.22070
X0.39500 Y0.21970
X0.39600 Y0.21970
X0.39600 Y0.21870
X0.39700 Y0.21870
X0.39700 Y0.21770
X0.39800 Y0.21770
X0.39800 Y0.21670
X0.39900 Y0.21670
X0.39900 Y0.21570
X0.40000 Y0.21570
X0.40000 Y0.21470
X0.40100 Y0.21470
X0.40100 Y0.21370
X0.40200 Y0.21370
X0.40200 Y0.21270
X0.40300 Y0.21270
X0.40300 Y0.21170
X0.40400 Y0.21170
X0.40400 Y0.21070
X0.40500 Y0.21070
X0.40500 Y0.20970
X0.40600 Y0.20970
X0.40600 Y0.20870
X0.40800 Y0.20870
X0.40800 Y0.20770
X0.40900 Y0.20770
X0.40900 Y0.20670
X0.41100 Y0.20670
X0.41100 Y0.20570
X0.41200 Y0.20570
X0.41200 Y0.20470
X0.41400 Y0.20470
X0.41400 Y0.20370
X0.41600 Y0.20370
X0.41600 Y0.20270
X0.41800 Y0.20270
X0.41800 Y0.20170
X0.42000 Y0.20170
X0.42000 Y0.20070
X0.42200 Y0.20070
X0.42200 Y0.19970
X0.42300 Y0.19970
X0.42300 Y0.19870
X0.42500 Y0.19870
X0.42500 Y0.19770
X0.42800 Y0.19770
X0.42800 Y0.19670
X0.43100 Y0.19670
X0.43100 Y0.19570
X0.43500 Y0.19570
X0.43500 Y0.19470
X0.43800 Y0.19470
X0.43800 Y0.19370
X0.44100 Y0.19370
X0.44100 Y0.19270
X0.44300 Y0.19270
X0.44300 Y0.19170
X0.44500 Y0.19170
X0.44500 Y0.19070
X0.44800 Y0.19070
X0.44800 Y0.18970
X0.45000 Y0.18970
X0.45000 Y0.18870
X0.45200 Y0.18870
X0.45200 Y0.18770
X0.45500 Y0.18770
X0.45500 Y0.18670
X0.48800 Y0.18670
X0.48800 Y0.18770
X0.49100 Y0.18770
X0.49100 Y0.18870
X0.49300 Y0.18870
X0.49300 Y0.18970
X0.49500 Y0.18970
X0.49500 Y0.19070
X0.49800 Y0.19070
X0.49800 Y0.19170
X0.50000 Y0.19170
X0.50000 Y0.19270
X0.50300 Y0.19270
X0.50300 Y0.19370
X0.50500 Y0.19370
X0.50500 Y0.19470
X0.50800 Y0.19470
X0.50800 Y0.19570
X0.51200 Y0.19570
X0.51200 Y0.19670
X0.51500 Y0.19670
X0.51500 Y0.19770
X0.51800 Y0.19770
X0.51800 Y0.19870
X0.56800 Y0.19870
X0.56800 Y0.19770
X0.56900 Y0.19770
X0.56900 Y0.19670
X0.57000 Y0.19670
X0.57000 Y0.19570
X0.57100 Y0.19570
X0.57100 Y0.04470
X0.57000 Y0.04470
X0.57000 Y0.04370
X0.56900 Y0.04370
X0.56900 Y0.04270
X0.56800 Y0.04270
X0.56800 Y0.04170
X0.30400 Y0.04170
X0.30400 Y0.04270
X0.30300 Y0.04270
X0.30300 Y0.04370
X0.30200 Y0.04370
X0.30200 Y0.04470
X0.30100 Y0.04470
X0.30100 Y0.07170
X0.30000 Y0.07170
X0.30000 Y0.07270
X0.29900 Y0.07270
X0.29900 Y0.07370
X0.29800 Y0.07370
X0.29800 Y0.04570
X0.24500 Y0.04570
X0.24500 Y0.14070
X0.24600 Y0.14070
X0.24600 Y0.21670
X0.21400 Y0.21670
X0.21400 Y0.29370
X0.30600 Y0.29370
X0.30600 Y0.29470
X0.30800 Y0.29470
X0.30800 Y0.34770
X0.31000 Y0.34770
X0.31000 Y0.35170
X0.31100 Y0.35170
X0.31100 Y0.35270
X0.31200 Y0.35270
X0.31200 Y0.35470
X0.31300 Y0.35470
X0.31300 Y0.35770
X0.31400 Y0.35770
X0.31400 Y0.41270
X0.31300 Y0.41270
X0.31300 Y0.41570
X0.31200 Y0.41570
X0.31200 Y0.41770
X0.31100 Y0.41770
X0.31100 Y0.41870
X0.31000 Y0.41870
X0.31000 Y0.42270
X0.30900 Y0.42270
X0.30900 Y0.47770
X0.31000 Y0.47770
X0.31000 Y0.55570
X0.31100 Y0.55570
X0.31100 Y0.63370
X0.31200 Y0.63370
X0.31200 Y0.67370
X0.31300 Y0.67370
X0.31300 Y0.69370
X0.31200 Y0.69370
X0.31200 Y0.75070
X0.31300 Y0.75070
X0.31300 Y0.85270
X0.31400 Y0.85270
X0.31400 Y0.85370
X0.31500 Y0.85370
X0.31500 Y0.85470
X0.31600 Y0.85470
X0.31600 Y0.85570
X0.35800 Y0.85570
X0.35800 Y0.85670
X0.41900 Y0.85670
X0.41900 Y0.85770
X0.45900 Y0.85770
X0.45900 Y0.85870
X0.46000 Y0.85870
X0.46000 Y0.85970
X0.46100 Y0.85970
X0.46100 Y0.86070
X0.46200 Y0.86070
X0.46200 Y0.86170
X0.46300 Y0.86170
X0.46300 Y0.86270
X0.47600 Y0.86270
X0.47600 Y0.86370
X0.47700 Y0.86370
X0.47700 Y0.86470
X0.47800 Y0.86470
X0.47800 Y0.86570
X0.46300 Y0.86570
X0.46300 Y0.96070
X0.48600 Y0.96070
X0.48600 Y0.96370
X0.48500 Y0.96370
X0.48500 Y0.96470
X0.48400 Y0.96470
X0.48400 Y0.96570
X0.48300 Y0.96570
X0.48300 Y0.96670
X0.48200 Y0.96670
X0.48200 Y0.96970
X0.25900 Y0.96970
X0.25900 Y0.95770
X0.25800 Y0.95770
X0.25800 Y0.95670
X0.25700 Y0.95670
X0.25700 Y0.95570
X0.25600 Y0.95570
X0.25600 Y0.95470
X0.23700 Y0.95470
X0.23700 Y0.95570
X0.23500 Y0.95570
X0.23500 Y0.95670
X0.23300 Y0.95670
X0.23300 Y0.95770
X0.22900 Y0.95770
X0.22900 Y0.95870
X0.22500 Y0.95870
X0.22500 Y0.95970
X0.22200 Y0.95970
X0.22200 Y0.96070
X0.21900 Y0.96070
X0.21900 Y0.96170
X0.21700 Y0.96170
X0.21700 Y0.96270
X0.21400 Y0.96270
X0.21400 Y0.96370
X0.20600 Y0.96370
X0.20600 Y0.96270
X0.20300 Y0.96270
X0.20300 Y0.96170
X0.20100 Y0.96170
X0.20100 Y0.96070
X0.19900 Y0.96070
X0.19900 Y0.95970
X0.19600 Y0.95970
X0.19600 Y0.95870
X0.19200 Y0.95870
X0.19200 Y0.95770
X0.18800 Y0.95770
X0.18800 Y0.95670
X0.18600 Y0.95670
X0.18600 Y0.95570
X0.18400 Y0.95570
X0.18400 Y0.95470
X0.18300 Y0.95470
X0.18300 Y0.95370
X0.18200 Y0.95370
X0.18200 Y0.95270
X0.18100 Y0.95270
X0.18100 Y0.95170
X0.18000 Y0.95170
X0.18000 Y0.95070
X0.17900 Y0.95070
X0.17900 Y0.94970
X0.17700 Y0.94970
X0.17700 Y0.94870
X0.17600 Y0.94870
X0.17600 Y0.94770
X0.17500 Y0.94770
X0.17500 Y0.94670
X0.17400 Y0.94670
X0.17400 Y0.94570
X0.17100 Y0.94570
X0.17100 Y0.94470
X0.11100 Y0.94470
X0.11100 Y0.94370
X0.11000 Y0.94370
X0.11000 Y0.94270
X0.10900 Y0.94270
X0.10900 Y0.94170
X0.10800 Y0.94170
X0.10800 Y0.94070
X0.10700 Y0.94070
X0.10700 Y0.93970
X0.10600 Y0.93970
X0.10600 Y0.93870
X0.10500 Y0.93870
X0.10500 Y0.93770
X0.10400 Y0.93770
X0.10400 Y0.93670
X0.10300 Y0.93670
X0.10300 Y0.93570
X0.10200 Y0.93570
X0.10200 Y0.93470
X0.10100 Y0.93470
X0.10100 Y0.93370
X0.10000 Y0.93370
X0.10000 Y0.93270
X0.09900 Y0.93270
X0.09900 Y0.93170
X0.09800 Y0.93170
X0.09800 Y0.93070
X0.09700 Y0.93070
X0.09700 Y0.92970
X0.09600 Y0.92970
X0.09600 Y0.92870
X0.09500 Y0.92870
X0.09500 Y0.14070
X0.09600 Y0.14070
X0.09600 Y0.04570
X0.04900 Y0.04570
X0.04900 Y0.96170
X0.05000 Y0.96170
X0.05000 Y0.96270
X0.05100 Y0.96270
X0.05100 Y0.96370
X0.05200 Y0.96370
X0.05200 Y0.96470
X0.05300 Y0.96470
X0.05300 Y0.96570
X0.05400 Y0.96570
X0.05400 Y0.96670
X0.05500 Y0.96670
X0.05500 Y0.96770
X0.05600 Y0.96770
X0.05600 Y0.96870
X0.05700 Y0.96870
X0.05700 Y0.96970
X0.05800 Y0.96970
X0.05800 Y0.97070
X0.05900 Y0.97070
X0.05900 Y0.99970
X0.06000 Y0.99970
X0.06000 Y1.00170
X0.06100 Y1.00170
X0.06100 Y1.00270
X0.06200 Y1.00270
X0.06200 Y1.00370
X0.06300 Y1.00370
X0.06300 Y1.00470
X0.06400 Y1.00470
X0.06400 Y1.00570
X0.06500 Y1.00570
X0.06500 Y1.00670
X0.06600 Y1.00670
X0.06600 Y1.00770
X0.06700 Y1.00770
X0.06700 Y1.00870
X0.06800 Y1.00870
X0.06800 Y1.00970
X0.06900 Y1.00970
X0.06900 Y1.01070
X0.07000 Y1.01070
X0.07000 Y1.01170
X0.07100 Y1.01170
X0.07100 Y1.01270
X0.07200 Y1.01270
X0.07200 Y1.01370
X0.07300 Y1.01370
X0.07300 Y1.01470
X0.07400 Y1.01470
X0.07400 Y1.01570
X0.07500 Y1.01570
X0.07500 Y1.01670
X0.07600 Y1.01670
X0.07600 Y1.01770
X0.07700 Y1.01770
X0.07700 Y1.01870
X0.07800 Y1.01870
X0.07800 Y1.01970
X0.07900 Y1.01970
X0.07900 Y1.02070
X0.08000 Y1.02070
X0.08000 Y1.02170
X0.08100 Y1.02170
X0.08100 Y1.02270
X0.08200 Y1.02270
X0.08200 Y1.02370
X0.08300 Y1.02370
X0.08300 Y1.02470
X0.08400 Y1.02470
X0.08400 Y1.02570
X0.08500 Y1.02570
X0.08500 Y1.02670
X0.08600 Y1.02670
X0.08600 Y1.02770
X0.08700 Y1.02770
X0.08700 Y1.02870
X0.08800 Y1.02870
X0.08800 Y1.02970
X0.08900 Y1.02970
X0.08900 Y1.03070
X0.09000 Y1.03070
X0.09000 Y1.03170
X0.09100 Y1.03170
X0.09100 Y1.03270
X0.09200 Y1.03270
X0.09200 Y1.03370
X0.09300 Y1.03370
X0.09300 Y1.03470
X0.09400 Y1.03470
X0.09400 Y1.03570
X0.09500 Y1.03570
X0.09500 Y1.03670
X0.09600 Y1.03670
X0.09600 Y1.03770
X0.09700 Y1.03770
X0.09700 Y1.03870
X0.09800 Y1.03870
X0.09800 Y1.03970
X0.09900 Y1.03970
X0.09900 Y1.04070
X0.10000 Y1.04070
X0.10000 Y1.04170
X0.10100 Y1.04170
X0.10100 Y1.04270
X0.10200 Y1.04270
X0.10200 Y1.04370
X0.10300 Y1.04370
X0.10300 Y1.04470
X0.10400 Y1.04470
X0.10400 Y1.04570
X0.10500 Y1.04570
X0.10500 Y1.04670
X0.10600 Y1.04670
X0.10600 Y1.04770
X0.10700 Y1.04770
X0.10700 Y1.04870
X0.10800 Y1.04870
X0.10800 Y1.04970
X0.10900 Y1.04970
X0.10900 Y1.05070
X0.11000 Y1.05070
X0.11000 Y1.05170
X0.11100 Y1.05170
X0.11100 Y1.05270
X0.11200 Y1.05270
X0.11200 Y1.05370
X0.11300 Y1.05370
X0.11300 Y1.05470
X0.11400 Y1.05470
X0.11400 Y1.05570
X0.11500 Y1.05570
X0.11500 Y1.05670
X0.11600 Y1.05670
X0.11600 Y1.05770
X0.11700 Y1.05770
X0.11700 Y1.05870
X0.11800 Y1.05870
X0.11800 Y1.05970
X0.11900 Y1.05970
X0.11900 Y1.06070
X0.12000 Y1.06070
X0.12000 Y1.06170
X0.12100 Y1.06170
X0.12100 Y1.06270
X0.12200 Y1.06270
X0.12200 Y1.06370
X0.12300 Y1.06370
X0.12300 Y1.06470
X0.12400 Y1.06470
X0.12400 Y1.06570
X0.12500 Y1.06570
X0.12500 Y1.06670
X0.12600 Y1.06670
X0.12600 Y1.06770
X0.12700 Y1.06770
X0.12700 Y1.06870
X0.12800 Y1.06870
X0.12800 Y1.06970
X0.12900 Y1.06970
X0.12900 Y1.07070
X0.13000 Y1.07070
X0.13000 Y1.07170
X0.13100 Y1.07170
X0.13100 Y1.07270
X0.13200 Y1.07270
X0.13200 Y1.07370
X0.13300 Y1.07370
X0.13300 Y1.07470
X0.13400 Y1.07470
X0.13400 Y1.07570
X0.13500 Y1.07570
X0.13500 Y1.07670
X0.13600 Y1.07670
X0.13600 Y1.07770
X0.13700 Y1.07770
X0.13700 Y1.07870
X0.13800 Y1.07870
X0.13800 Y1.07970
X0.13900 Y1.07970
X0.13900 Y1.08070
X0.14000 Y1.08070
X0.14000 Y1.08170
X0.14100 Y1.08170
X0.14100 Y1.08270
X0.14200 Y1.08270
X0.14200 Y1.08370
X0.14300 Y1.08370
X0.14300 Y1.08470
X0.14400 Y1.08470
X0.14400 Y1.08570
X0.14500 Y1.08570
X0.14500 Y1.08670
X0.14600 Y1.08670
X0.14600 Y1.08770
X0.14700 Y1.08770
X0.14700 Y1.08870
X0.14800 Y1.08870
X0.14800 Y1.08970
X0.14900 Y1.08970
X0.14900 Y1.09070
X0.15000 Y1.09070
X0.15000 Y1.09170
X0.15100 Y1.09170
X0.15100 Y1.09270
X0.15200 Y1.09270
X0.15200 Y1.09370
X0.15300 Y1.09370
X0.15300 Y1.09470
X0.15400 Y1.09470
X0.15400 Y1.09570
X0.15500 Y1.09570
X0.15500 Y1.09670
X0.15600 Y1.09670
X0.15600 Y1.09770
X0.15700 Y1.09770
X0.15700 Y1.09870
X0.15800 Y1.09870
X0.15800 Y1.09970
X0.15900 Y1.09970
X0.15900 Y1.10070
X0.16000 Y1.10070
X0.16000 Y1.10170
X0.16100 Y1.10170
X0.16100 Y1.10270
X0.16300 Y1.10270
X0.16300 Y1.10370
X0.56800 Y1.10370
X0.56800 Y1.10270
X0.56900 Y1.10270
X0.56900 Y1.10170
X0.57000 Y1.10170
X0.57000 Y1.10070
X0.57100 Y1.10070
X0.57100 Y1.09670
X0.57200 Y1.09670
X0.57200 Y1.09470
G04 P0 ( dwell for no time -- G64 should not smooth over this point )
G00 Z1.00000 ( retract )

G00 X0.24400 Y0.95170 ( rapid move to begin. )
G01 Z0.00100 F2.00000 ( plunge. )
G04 P0 ( dwell for no time -- G64 should not smooth over this point )
X0.24400 Y0.95170
X0.24600 Y0.95170
X0.24600 Y0.95070
X0.24700 Y0.95070
X0.24700 Y0.94970
X0.24800 Y0.94970
X0.24800 Y0.94870
X0.24900 Y0.94870
X0.24900 Y0.94770
X0.25000 Y0.94770
X0.25000 Y0.94670
X0.25100 Y0.94670
X0.25100 Y0.94470
X0.25200 Y0.94470
X0.25200 Y0.94370
X0.25300 Y0.94370
X0.25300 Y0.94170
X0.25400 Y0.94170
X0.25400 Y0.93970
X0.25500 Y0.93970
X0.25500 Y0.93670
X0.25600 Y0.93670
X0.25600 Y0.93370
X0.25700 Y0.93370
X0.25700 Y0.93070
X0.25800 Y0.93070
X0.25800 Y0.89570
X0.25700 Y0.89570
X0.25700 Y0.89270
X0.25600 Y0.89270
X0.25600 Y0.88970
X0.25500 Y0.88970
X0.25500 Y0.88670
X0.25400 Y0.88670
X0.25400 Y0.88470
X0.25300 Y0.88470
X0.25300 Y0.88370
X0.25200 Y0.88370
X0.25200 Y0.88170
X0.25100 Y0.88170
X0.25100 Y0.87970
X0.25000 Y0.87970
X0.25000 Y0.87870
X0.24900 Y0.87870
X0.24900 Y0.87770
X0.24800 Y0.87770
X0.24800 Y0.87670
X0.24700 Y0.87670
X0.24700 Y0.87570
X0.24600 Y0.87570
X0.24600 Y0.87470
X0.24400 Y0.87470
X0.24400 Y0.87370
X0.24300 Y0.87370
X0.24300 Y0.87270
X0.24100 Y0.87270
X0.24100 Y0.87170
X0.23900 Y0.87170
X0.23900 Y0.87070
X0.23800 Y0.87070
X0.23800 Y0.86970
X0.23600 Y0.86970
X0.23600 Y0.86870
X0.23400 Y0.86870
X0.23400 Y0.86770
X0.23000 Y0.86770
X0.23000 Y0.86670
X0.22400 Y0.86670
X0.22400 Y0.86570
X0.20200 Y0.86570
X0.20200 Y0.80470
X0.20100 Y0.80470
X0.20100 Y0.80170
X0.20000 Y0.80170
X0.20000 Y0.79970
X0.19900 Y0.79970
X0.19900 Y0.79770
X0.19800 Y0.79770
X0.19800 Y0.78570
X0.15700 Y0.78570
X0.15700 Y0.79770
X0.15600 Y0.79770
X0.15600 Y0.79970
X0.15500 Y0.79970
X0.15500 Y0.80170
X0.15400 Y0.80170
X0.15400 Y0.80470
X0.15300 Y0.80470
X0.15300 Y0.88570
X0.15200 Y0.88570
X0.15200 Y0.88470
X0.15100 Y0.88470
X0.15100 Y0.88370
X0.15000 Y0.88370
X0.15000 Y0.88270
X0.14900 Y0.88270
X0.14900 Y0.88170
X0.14800 Y0.88170
X0.14800 Y0.88070
X0.14700 Y0.88070
X0.14700 Y0.87970
X0.14600 Y0.87970
X0.14600 Y0.87870
X0.14500 Y0.87870
X0.14500 Y0.31470
X0.14400 Y0.31470
X0.14400 Y0.27570
X0.14500 Y0.27570
X0.14500 Y0.25470
X0.14400 Y0.25470
X0.14400 Y0.21570
X0.14500 Y0.21570
X0.14500 Y0.14070
X0.14800 Y0.14070
X0.14800 Y0.13270
X0.14700 Y0.13270
X0.14700 Y0.08270
X0.14800 Y0.08270
X0.14800 Y0.04570
X0.09600 Y0.04570
X0.09600 Y0.90470
X0.09700 Y0.90470
X0.09700 Y0.90770
X0.09800 Y0.90770
X0.09800 Y0.90970
X0.09900 Y0.90970
X0.09900 Y0.91170
X0.10000 Y0.91170
X0.10000 Y0.91270
X0.10100 Y0.91270
X0.10100 Y0.91370
X0.10200 Y0.91370
X0.10200 Y0.91470
X0.10300 Y0.91470
X0.10300 Y0.91570
X0.10400 Y0.91570
X0.10400 Y0.91670
X0.10500 Y0.91670
X0.10500 Y0.91770
X0.10600 Y0.91770
X0.10600 Y0.91870
X0.10700 Y0.91870
X0.10700 Y0.91970
X0.10800 Y0.91970
X0.10800 Y0.92070
X0.10900 Y0.92070
X0.10900 Y0.92170
X0.11000 Y0.92170
X0.11000 Y0.92270
X0.11100 Y0.92270
X0.11100 Y0.92370
X0.11200 Y0.92370
X0.11200 Y0.92470
X0.11300 Y0.92470
X0.11300 Y0.92570
X0.11400 Y0.92570
X0.11400 Y0.92670
X0.11500 Y0.92670
X0.11500 Y0.92770
X0.11600 Y0.92770
X0.11600 Y0.92870
X0.11700 Y0.92870
X0.11700 Y0.92970
X0.11800 Y0.92970
X0.11800 Y0.93070
X0.11900 Y0.93070
X0.11900 Y0.93170
X0.12000 Y0.93170
X0.12000 Y0.93270
X0.12100 Y0.93270
X0.12100 Y0.93370
X0.12200 Y0.93370
X0.12200 Y0.93470
X0.12400 Y0.93470
X0.12400 Y0.93570
X0.12600 Y0.93570
X0.12600 Y0.93670
X0.12900 Y0.93670
X0.12900 Y0.93770
X0.16600 Y0.93770
X0.16600 Y0.93970
X0.16700 Y0.93970
X0.16700 Y0.94170
X0.16800 Y0.94170
X0.16800 Y0.94370
X0.16900 Y0.94370
X0.16900 Y0.94470
X0.17100 Y0.94470
X0.17100 Y0.94570
X0.17400 Y0.94570
X0.17400 Y0.94670
X0.17500 Y0.94670
X0.17500 Y0.94770
X0.17600 Y0.94770
X0.17600 Y0.94870
X0.17700 Y0.94870
X0.17700 Y0.94970
X0.17900 Y0.94970
X0.17900 Y0.95070
X0.18000 Y0.95070
X0.18000 Y0.95170
X0.18100 Y0.95170
X0.18100 Y0.95270
X0.18200 Y0.95270
X0.18200 Y0.95370
X0.18300 Y0.95370
X0.18300 Y0.95470
X0.18400 Y0.95470
X0.18400 Y0.95570
X0.18600 Y0.95570
X0.18600 Y0.95670
X0.18800 Y0.95670
X0.18800 Y0.95770
X0.19200 Y0.95770
X0.19200 Y0.95870
X0.19600 Y0.95870
X0.19600 Y0.95970
X0.19900 Y0.95970
X0.19900 Y0.96070
X0.22200 Y0.96070
X0.22200 Y0.95970
X0.22500 Y0.95970
X0.22500 Y0.95870
X0.22900 Y0.95870
X0.22900 Y0.95770
X0.23300 Y0.95770
X0.23300 Y0.95670
X0.23500 Y0.95670
X0.23500 Y0.95570
X0.23700 Y0.95570
X0.23700 Y0.95470
X0.24100 Y0.95470
X0.24100 Y0.95370
X0.24300 Y0.95370
X0.24300 Y0.95270
X0.24400 Y0.95270
X0.24400 Y0.95170
G04 P0 ( dwell for no time -- G64 should not smooth over this point )
G00 Z1.00000 ( retract )

G00 X0.34400 Y0.95170 ( rapid move to begin. )
G01 Z0.00100 F2.00000 ( plunge. )
G04 P0 ( dwell for no time -- G64 should not smooth over this point )
X0.34400 Y0.95170
X0.34600 Y0.95170
X0.34600 Y0.95070
X0.34700 Y0.95070
X0.34700 Y0.94970
X0.34800 Y0.94970
X0.34800 Y0.94870
X0.34900 Y0.94870
X0.34900 Y0.94770
X0.35000 Y0.94770
X0.35000 Y0.94670
X0.35100 Y0.94670
X0.35100 Y0.94470
X0.35200 Y0.94470
X0.35200 Y0.94370
X0.35300 Y0.94370
X0.35300 Y0.94170
X0.35400 Y0.94170
X0.35400 Y0.93970
X0.35500 Y0.93970
X0.35500 Y0.93670
X0.35600 Y0.93670
X0.35600 Y0.93370
X0.35700 Y0.93370
X0.35700 Y0.93070
X0.35800 Y0.93070
X0.35800 Y0.89570
X0.35700 Y0.89570
X0.35700 Y0.89270
X0.35600 Y0.89270
X0.35600 Y0.88970
X0.35500 Y0.88970
X0.35500 Y0.88670
X0.35400 Y0.88670
X0.35400 Y0.88470
X0.35300 Y0.88470
X0.35300 Y0.88370
X0.35200 Y0.88370
X0.35200 Y0.88170
X0.35100 Y0.88170
X0.35100 Y0.87970
X0.35000 Y0.87970
X0.35000 Y0.87870
X0.34900 Y0.87870
X0.34900 Y0.87770
X0.34800 Y0.87770
X0.34800 Y0.87670
X0.34700 Y0.87670
X0.34700 Y0.87570
X0.34600 Y0.87570
X0.34600 Y0.87470
X0.34400 Y0.87470
X0.34400 Y0.87370
X0.34300 Y0.87370
X0.34300 Y0.87270
X0.34100 Y0.87270
X0.34100 Y0.87170
X0.33900 Y0.87170
X0.33900 Y0.87070
X0.33800 Y0.87070
X0.33800 Y0.86970
X0.33600 Y0.86970
X0.33600 Y0.86870
X0.33400 Y0.86870
X0.33400 Y0.86770
X0.33000 Y0.86770
X0.33000 Y0.86670
X0.32400 Y0.86670
X0.32400 Y0.86570
X0.30800 Y0.86570
X0.30800 Y0.86470
X0.30700 Y0.86470
X0.30700 Y0.86370
X0.30600 Y0.86370
X0.30600 Y0.82670
X0.30700 Y0.82670
X0.30700 Y0.80070
X0.30600 Y0.80070
X0.30600 Y0.78170
X0.30900 Y0.78170
X0.30900 Y0.73670
X0.25400 Y0.73670
X0.25400 Y0.78170
X0.25700 Y0.78170
X0.25700 Y0.78570
X0.21700 Y0.78570
X0.21700 Y0.79770
X0.21600 Y0.79770
X0.21600 Y0.79970
X0.21500 Y0.79970
X0.21500 Y0.80170
X0.21400 Y0.80170
X0.21400 Y0.80470
X0.21300 Y0.80470
X0.21300 Y0.82770
X0.21400 Y0.82770
X0.21400 Y0.83070
X0.21500 Y0.83070
X0.21500 Y0.83270
X0.21600 Y0.83270
X0.21600 Y0.83470
X0.21700 Y0.83470
X0.21700 Y0.84670
X0.25700 Y0.84670
X0.25700 Y0.88970
X0.25800 Y0.88970
X0.25800 Y0.89270
X0.25900 Y0.89270
X0.25900 Y0.89470
X0.26000 Y0.89470
X0.26000 Y0.89670
X0.26100 Y0.89670
X0.26100 Y0.89770
X0.26200 Y0.89770
X0.26200 Y0.89870
X0.26300 Y0.89870
X0.26300 Y0.93070
X0.26400 Y0.93070
X0.26400 Y0.93370
X0.26500 Y0.93370
X0.26500 Y0.93770
X0.26600 Y0.93770
X0.26600 Y0.93970
X0.26700 Y0.93970
X0.26700 Y0.94170
X0.26800 Y0.94170
X0.26800 Y0.94370
X0.26900 Y0.94370
X0.26900 Y0.94470
X0.27000 Y0.94470
X0.27000 Y0.94670
X0.27100 Y0.94670
X0.27100 Y0.94770
X0.27200 Y0.94770
X0.27200 Y0.94870
X0.27300 Y0.94870
X0.27300 Y0.94970
X0.27400 Y0.94970
X0.27400 Y0.95070
X0.27500 Y0.95070
X0.27500 Y0.95170
X0.27700 Y0.95170
X0.27700 Y0.95270
X0.27800 Y0.95270
X0.27800 Y0.95370
X0.28000 Y0.95370
X0.28000 Y0.95470
X0.28200 Y0.95470
X0.28200 Y0.95570
X0.28300 Y0.95570
X0.28300 Y0.95670
X0.28500 Y0.95670
X0.28500 Y0.95770
X0.28700 Y0.95770
X0.28700 Y0.95870
X0.29100 Y0.95870
X0.29100 Y0.95970
X0.29700 Y0.95970
X0.29700 Y0.96070
X0.32400 Y0.96070
X0.32400 Y0.95970
X0.33000 Y0.95970
X0.33000 Y0.95870
X0.33400 Y0.95870
X0.33400 Y0.95770
X0.33600 Y0.95770
X0.33600 Y0.95670
X0.33800 Y0.95670
X0.33800 Y0.95570
X0.33900 Y0.95570
X0.33900 Y0.95470
X0.34100 Y0.95470
X0.34100 Y0.95370
X0.34300 Y0.95370
X0.34300 Y0.95270
X0.34400 Y0.95270
X0.34400 Y0.95170
G04 P0 ( dwell for no time -- G64 should not smooth over this point )
G00 Z1.00000 ( retract )

G00 X0.44400 Y0.95170 ( rapid move to begin. )
G01 Z0.00100 F2.00000 ( plunge. )
G04 P0 ( dwell for no time -- G64 should not smooth over this point )
X0.44400 Y0.95170
X0.44600 Y0.95170
X0.44600 Y0.95070
X0.44700 Y0.95070
X0.44700 Y0.94970
X0.44800 Y0.94970
X0.44800 Y0.94870
X0.44900 Y0.94870
X0.44900 Y0.94770
X0.45000 Y0.94770
X0.45000 Y0.94670
X0.45100 Y0.94670
X0.45100 Y0.94470
X0.45200 Y0.94470
X0.45200 Y0.94370
X0.45300 Y0.94370
X0.45300 Y0.94170
X0.45400 Y0.94170
X0.45400 Y0.93970
X0.45500 Y0.93970
X0.45500 Y0.93670
X0.45600 Y0.93670
X0.45600 Y0.93370
X0.45700 Y0.93370
X0.45700 Y0.93070
X0.45800 Y0.93070
X0.45800 Y0.89570
X0.45700 Y0.89570
X0.45700 Y0.89270
X0.45600 Y0.89270
X0.45600 Y0.88970
X0.45500 Y0.88970
X0.45500 Y0.88670
X0.45400 Y0.88670
X0.45400 Y0.88470
X0.45300 Y0.88470
X0.45300 Y0.88370
X0.45200 Y0.88370
X0.45200 Y0.88170
X0.45100 Y0.88170
X0.45100 Y0.87970
X0.45000 Y0.87970
X0.45000 Y0.87870
X0.44900 Y0.87870
X0.44900 Y0.87770
X0.44800 Y0.87770
X0.44800 Y0.87670
X0.44700 Y0.87670
X0.44700 Y0.87570
X0.44600 Y0.87570
X0.44600 Y0.87470
X0.44400 Y0.87470
X0.44400 Y0.87370
X0.44300 Y0.87370
X0.44300 Y0.87270
X0.44100 Y0.87270
X0.44100 Y0.87170
X0.43900 Y0.87170
X0.43900 Y0.87070
X0.43800 Y0.87070
X0.43800 Y0.86970
X0.43600 Y0.86970
X0.43600 Y0.86870
X0.43400 Y0.86870
X0.43400 Y0.86770
X0.43000 Y0.86770
X0.43000 Y0.86670
X0.42400 Y0.86670
X0.42400 Y0.86570
X0.39700 Y0.86570
X0.39700 Y0.86670
X0.39100 Y0.86670
X0.39100 Y0.86770
X0.38700 Y0.86770
X0.38700 Y0.86870
X0.38500 Y0.86870
X0.38500 Y0.86970
X0.38300 Y0.86970
X0.38300 Y0.87070
X0.38200 Y0.87070
X0.38200 Y0.87170
X0.38000 Y0.87170
X0.38000 Y0.87270
X0.37800 Y0.87270
X0.37800 Y0.87370
X0.37700 Y0.87370
X0.37700 Y0.87470
X0.37500 Y0.87470
X0.37500 Y0.87570
X0.37400 Y0.87570
X0.37400 Y0.87670
X0.37300 Y0.87670
X0.37300 Y0.87770
X0.37200 Y0.87770
X0.37200 Y0.87870
X0.37100 Y0.87870
X0.37100 Y0.87970
X0.37000 Y0.87970
X0.37000 Y0.88170
X0.36900 Y0.88170
X0.36900 Y0.88270
X0.36800 Y0.88270
X0.36800 Y0.88470
X0.36700 Y0.88470
X0.36700 Y0.88670
X0.36600 Y0.88670
X0.36600 Y0.88870
X0.36500 Y0.88870
X0.36500 Y0.89270
X0.36400 Y0.89270
X0.36400 Y0.89570
X0.36300 Y0.89570
X0.36300 Y0.93070
X0.36400 Y0.93070
X0.36400 Y0.93370
X0.36500 Y0.93370
X0.36500 Y0.93770
X0.36600 Y0.93770
X0.36600 Y0.93970
X0.36700 Y0.93970
X0.36700 Y0.94170
X0.36800 Y0.94170
X0.36800 Y0.94370
X0.36900 Y0.94370
X0.36900 Y0.94470
X0.37000 Y0.94470
X0.37000 Y0.94670
X0.37100 Y0.94670
X0.37100 Y0.94770
X0.37200 Y0.94770
X0.37200 Y0.94870
X0.37300 Y0.94870
X0.37300 Y0.94970
X0.37400 Y0.94970
X0.37400 Y0.95070
X0.37500 Y0.95070
X0.37500 Y0.95170
X0.37700 Y0.95170
X0.37700 Y0.95270
X0.37800 Y0.95270
X0.37800 Y0.95370
X0.38000 Y0.95370
X0.38000 Y0.95470
X0.38200 Y0.95470
X0.38200 Y0.95570
X0.38300 Y0.95570
X0.38300 Y0.95670
X0.38500 Y0.95670
X0.38500 Y0.95770
X0.38700 Y0.95770
X0.38700 Y0.95870
X0.39100 Y0.95870
X0.39100 Y0.95970
X0.39700 Y0.95970
X0.39700 Y0.96070
X0.42400 Y0.96070
X0.42400 Y0.95970
X0.43000 Y0.95970
X0.43000 Y0.95870
X0.43400 Y0.95870
X0.43400 Y0.95770
X0.43600 Y0.95770
X0.43600 Y0.95670
X0.43800 Y0.95670
X0.43800 Y0.95570
X0.43900 Y0.95570
X0.43900 Y0.95470
X0.44100 Y0.95470
X0.44100 Y0.95370
X0.44300 Y0.95370
X0.44300 Y0.95270
X0.44400 Y0.95270
X0.44400 Y0.95170
G04 P0 ( dwell for no time -- G64 should not smooth over this point )
G00 Z1.00000 ( retract )

G00 X0.51800 Y0.78770 ( rapid move to begin. )
G01 Z0.00100 F2.00000 ( plunge. )
G04 P0 ( dwell for no time -- G64 should not smooth over this point )
X0.51800 Y0.78770
X0.52000 Y0.78770
X0.52000 Y0.78670
X0.52100 Y0.78670
X0.52100 Y0.78570
X0.52600 Y0.78570
X0.52600 Y0.78470
X0.52800 Y0.78470
X0.52800 Y0.78370
X0.53000 Y0.78370
X0.53000 Y0.78270
X0.53200 Y0.78270
X0.53200 Y0.78170
X0.53300 Y0.78170
X0.53300 Y0.78070
X0.53500 Y0.78070
X0.53500 Y0.77970
X0.53600 Y0.77970
X0.53600 Y0.77870
X0.55000 Y0.77870
X0.55000 Y0.77770
X0.56800 Y0.77770
X0.56800 Y0.77670
X0.56900 Y0.77670
X0.56900 Y0.77570
X0.57000 Y0.77570
X0.57000 Y0.77470
X0.57100 Y0.77470
X0.57100 Y0.73470
X0.57200 Y0.73470
X0.57200 Y0.73170
X0.57300 Y0.73170
X0.57300 Y0.72770
X0.57400 Y0.72770
X0.57400 Y0.72470
X0.57500 Y0.72470
X0.57500 Y0.72170
X0.57600 Y0.72170
X0.57600 Y0.71770
X0.57700 Y0.71770
X0.57700 Y0.70770
X0.57800 Y0.70770
X0.57800 Y0.67270
X0.57700 Y0.67270
X0.57700 Y0.66270
X0.57600 Y0.66270
X0.57600 Y0.65870
X0.57500 Y0.65870
X0.57500 Y0.65570
X0.57400 Y0.65570
X0.57400 Y0.65270
X0.57300 Y0.65270
X0.57300 Y0.64870
X0.57200 Y0.64870
X0.57200 Y0.64570
X0.57100 Y0.64570
X0.57100 Y0.34070
X0.57200 Y0.34070
X0.57200 Y0.33770
X0.57300 Y0.33770
X0.57300 Y0.33370
X0.57400 Y0.33370
X0.57400 Y0.33070
X0.57500 Y0.33070
X0.57500 Y0.32770
X0.57600 Y0.32770
X0.57600 Y0.32370
X0.57700 Y0.32370
X0.57700 Y0.31370
X0.57800 Y0.31370
X0.57800 Y0.27870
X0.57700 Y0.27870
X0.57700 Y0.26870
X0.57600 Y0.26870
X0.57600 Y0.26470
X0.57500 Y0.26470
X0.57500 Y0.26170
X0.57400 Y0.26170
X0.57400 Y0.25870
X0.57300 Y0.25870
X0.57300 Y0.25470
X0.57200 Y0.25470
X0.57200 Y0.25170
X0.57100 Y0.25170
X0.57100 Y0.20770
X0.57000 Y0.20770
X0.57000 Y0.20670
X0.56900 Y0.20670
X0.56900 Y0.20570
X0.56800 Y0.20570
X0.56800 Y0.20470
X0.53200 Y0.20470
X0.53200 Y0.20370
X0.53000 Y0.20370
X0.53000 Y0.20270
X0.52800 Y0.20270
X0.52800 Y0.20170
X0.52600 Y0.20170
X0.52600 Y0.20070
X0.52400 Y0.20070
X0.52400 Y0.19970
X0.52200 Y0.19970
X0.52200 Y0.19870
X0.51800 Y0.19870
X0.51800 Y0.19770
X0.51500 Y0.19770
X0.51500 Y0.19670
X0.51200 Y0.19670
X0.51200 Y0.19570
X0.50800 Y0.19570
X0.50800 Y0.19470
X0.50500 Y0.19470
X0.50500 Y0.19370
X0.50300 Y0.19370
X0.50300 Y0.19270
X0.50000 Y0.19270
X0.50000 Y0.19170
X0.49800 Y0.19170
X0.49800 Y0.19070
X0.48900 Y0.19070
X0.48900 Y0.18970
X0.45400 Y0.18970
X0.45400 Y0.19070
X0.44500 Y0.19070
X0.44500 Y0.19170
X0.44300 Y0.19170
X0.44300 Y0.19270
X0.44100 Y0.19270
X0.44100 Y0.19370
X0.43800 Y0.19370
X0.43800 Y0.19470
X0.43500 Y0.19470
X0.43500 Y0.19570
X0.43100 Y0.19570
X0.43100 Y0.19670
X0.42800 Y0.19670
X0.42800 Y0.19770
X0.42500 Y0.19770
X0.42500 Y0.19870
X0.42300 Y0.19870
X0.42300 Y0.19970
X0.42200 Y0.19970
X0.42200 Y0.20070
X0.42000 Y0.20070
X0.42000 Y0.20170
X0.41800 Y0.20170
X0.41800 Y0.20270
X0.41600 Y0.20270
X0.41600 Y0.20370
X0.41400 Y0.20370
X0.41400 Y0.20470
X0.41200 Y0.20470
X0.41200 Y0.20570
X0.41100 Y0.20570
X0.41100 Y0.20670
X0.40900 Y0.20670
X0.40900 Y0.20770
X0.40800 Y0.20770
X0.40800 Y0.20870
X0.40600 Y0.20870
X0.40600 Y0.20970
X0.40500 Y0.20970
X0.40500 Y0.21070
X0.40400 Y0.21070
X0.40400 Y0.21170
X0.40300 Y0.21170
X0.40300 Y0.21270
X0.40200 Y0.21270
X0.40200 Y0.21370
X0.40100 Y0.21370
X0.40100 Y0.21470
X0.40000 Y0.21470
X0.40000 Y0.21570
X0.39900 Y0.21570
X0.39900 Y0.21670
X0.39800 Y0.21670
X0.39800 Y0.21770
X0.39700 Y0.21770
X0.39700 Y0.21870
X0.39600 Y0.21870
X0.39600 Y0.21970
X0.39500 Y0.21970
X0.39500 Y0.22070
X0.39400 Y0.22070
X0.39400 Y0.22170
X0.39300 Y0.22170
X0.39300 Y0.22270
X0.39200 Y0.22270
X0.39200 Y0.22370
X0.39100 Y0.22370
X0.39100 Y0.22470
X0.39000 Y0.22470
X0.39000 Y0.22570
X0.38900 Y0.22570
X0.38900 Y0.22670
X0.38800 Y0.22670
X0.38800 Y0.22770
X0.38700 Y0.22770
X0.38700 Y0.22870
X0.38600 Y0.22870
X0.38600 Y0.22970
X0.38500 Y0.22970
X0.38500 Y0.23070
X0.38400 Y0.23070
X0.38400 Y0.23270
X0.38300 Y0.23270
X0.38300 Y0.23370
X0.38200 Y0.23370
X0.38200 Y0.23570
X0.38100 Y0.23570
X0.38100 Y0.23670
X0.38000 Y0.23670
X0.38000 Y0.23770
X0.37900 Y0.23770
X0.37900 Y0.23970
X0.37800 Y0.23970
X0.37800 Y0.24170
X0.37700 Y0.24170
X0.37700 Y0.24470
X0.37600 Y0.24470
X0.37600 Y0.24670
X0.37500 Y0.24670
X0.37500 Y0.24770
X0.37400 Y0.24770
X0.37400 Y0.24970
X0.37300 Y0.24970
X0.37300 Y0.25270
X0.37200 Y0.25270
X0.37200 Y0.25570
X0.37100 Y0.25570
X0.37100 Y0.25970
X0.37000 Y0.25970
X0.37000 Y0.26270
X0.36900 Y0.26270
X0.36900 Y0.28170
X0.36800 Y0.28170
X0.36800 Y0.31070
X0.36900 Y0.31070
X0.36900 Y0.32070
X0.37000 Y0.32070
X0.37000 Y0.32870
X0.37100 Y0.32870
X0.37100 Y0.33670
X0.37200 Y0.33670
X0.37200 Y0.33970
X0.37300 Y0.33970
X0.37300 Y0.34270
X0.37400 Y0.34270
X0.37400 Y0.34470
X0.37500 Y0.34470
X0.37500 Y0.34570
X0.37600 Y0.34570
X0.37600 Y0.34770
X0.37700 Y0.34770
X0.37700 Y0.34970
X0.37800 Y0.34970
X0.37800 Y0.35170
X0.37900 Y0.35170
X0.37900 Y0.35370
X0.38000 Y0.35370
X0.38000 Y0.35570
X0.38100 Y0.35570
X0.38100 Y0.35670
X0.38200 Y0.35670
X0.38200 Y0.35870
X0.38300 Y0.35870
X0.38300 Y0.35970
X0.38400 Y0.35970
X0.38400 Y0.36170
X0.38500 Y0.36170
X0.38500 Y0.36270
X0.38600 Y0.36270
X0.38600 Y0.36370
X0.38700 Y0.36370
X0.38700 Y0.36470
X0.38800 Y0.36470
X0.38800 Y0.36570
X0.38900 Y0.36570
X0.38900 Y0.36670
X0.39000 Y0.36670
X0.39000 Y0.36770
X0.39100 Y0.36770
X0.39100 Y0.36870
X0.39200 Y0.36870
X0.39200 Y0.36970
X0.39300 Y0.36970
X0.39300 Y0.37070
X0.39400 Y0.37070
X0.39400 Y0.37170
X0.39500 Y0.37170
X0.39500 Y0.37270
X0.39600 Y0.37270
X0.39600 Y0.37370
X0.39700 Y0.37370
X0.39700 Y0.37470
X0.39800 Y0.37470
X0.39800 Y0.37570
X0.39900 Y0.37570
X0.39900 Y0.37670
X0.40000 Y0.37670
X0.40000 Y0.37770
X0.40100 Y0.37770
X0.40100 Y0.37870
X0.40200 Y0.37870
X0.40200 Y0.37970
X0.40300 Y0.37970
X0.40300 Y0.38070
X0.40400 Y0.38070
X0.40400 Y0.38170
X0.40500 Y0.38170
X0.40500 Y0.38270
X0.40600 Y0.38270
X0.40600 Y0.38370
X0.40800 Y0.38370
X0.40800 Y0.38470
X0.40900 Y0.38470
X0.40900 Y0.38570
X0.41100 Y0.38570
X0.41100 Y0.38670
X0.41200 Y0.38670
X0.41200 Y0.38770
X0.41300 Y0.38770
X0.41300 Y0.38870
X0.41500 Y0.38870
X0.41500 Y0.38970
X0.41700 Y0.38970
X0.41700 Y0.39070
X0.42000 Y0.39070
X0.42000 Y0.39170
X0.42200 Y0.39170
X0.42200 Y0.39270
X0.42300 Y0.39270
X0.42300 Y0.39370
X0.42500 Y0.39370
X0.42500 Y0.39470
X0.42800 Y0.39470
X0.42800 Y0.39570
X0.43100 Y0.39570
X0.43100 Y0.39670
X0.43300 Y0.39670
X0.43300 Y0.39770
X0.43400 Y0.39770
X0.43400 Y0.39870
X0.43700 Y0.39870
X0.43700 Y0.39970
X0.43800 Y0.39970
X0.43800 Y0.58670
X0.43700 Y0.58670
X0.43700 Y0.58770
X0.43400 Y0.58770
X0.43400 Y0.58870
X0.43300 Y0.58870
X0.43300 Y0.58970
X0.43100 Y0.58970
X0.43100 Y0.59070
X0.42800 Y0.59070
X0.42800 Y0.59170
X0.42500 Y0.59170
X0.42500 Y0.59270
X0.42300 Y0.59270
X0.42300 Y0.59370
X0.42200 Y0.59370
X0.42200 Y0.59470
X0.42000 Y0.59470
X0.42000 Y0.59570
X0.41700 Y0.59570
X0.41700 Y0.59670
X0.41500 Y0.59670
X0.41500 Y0.59770
X0.41300 Y0.59770
X0.41300 Y0.59870
X0.41200 Y0.59870
X0.41200 Y0.59970
X0.41100 Y0.59970
X0.41100 Y0.60070
X0.40900 Y0.60070
X0.40900 Y0.60170
X0.40800 Y0.60170
X0.40800 Y0.60270
X0.40600 Y0.60270
X0.40600 Y0.60370
X0.40500 Y0.60370
X0.40500 Y0.60470
X0.40400 Y0.60470
X0.40400 Y0.60570
X0.40300 Y0.60570
X0.40300 Y0.60670
X0.40200 Y0.60670
X0.40200 Y0.60770
X0.40100 Y0.60770
X0.40100 Y0.60870
X0.40000 Y0.60870
X0.40000 Y0.60970
X0.39900 Y0.60970
X0.39900 Y0.61070
X0.39800 Y0.61070
X0.39800 Y0.61170
X0.39700 Y0.61170
X0.39700 Y0.61270
X0.39600 Y0.61270
X0.39600 Y0.61370
X0.39500 Y0.61370
X0.39500 Y0.61470
X0.39400 Y0.61470
X0.39400 Y0.61570
X0.39300 Y0.61570
X0.39300 Y0.61670
X0.39200 Y0.61670
X0.39200 Y0.61770
X0.39100 Y0.61770
X0.39100 Y0.61870
X0.39000 Y0.61870
X0.39000 Y0.61970
X0.38900 Y0.61970
X0.38900 Y0.62070
X0.38800 Y0.62070
X0.38800 Y0.62170
X0.38700 Y0.62170
X0.38700 Y0.62270
X0.38600 Y0.62270
X0.38600 Y0.62370
X0.38500 Y0.62370
X0.38500 Y0.62470
X0.38400 Y0.62470
X0.38400 Y0.62670
X0.38300 Y0.62670
X0.38300 Y0.62770
X0.38200 Y0.62770
X0.38200 Y0.62970
X0.38100 Y0.62970
X0.38100 Y0.63070
X0.38000 Y0.63070
X0.38000 Y0.63170
X0.37900 Y0.63170
X0.37900 Y0.63370
X0.37800 Y0.63370
X0.37800 Y0.63570
X0.37700 Y0.63570
X0.37700 Y0.63870
X0.37600 Y0.63870
X0.37600 Y0.64070
X0.37500 Y0.64070
X0.37500 Y0.64170
X0.37400 Y0.64170
X0.37400 Y0.64370
X0.37300 Y0.64370
X0.37300 Y0.64670
X0.37200 Y0.64670
X0.37200 Y0.64970
X0.37100 Y0.64970
X0.37100 Y0.65370
X0.37000 Y0.65370
X0.37000 Y0.65670
X0.36900 Y0.65670
X0.36900 Y0.66470
X0.36800 Y0.66470
X0.36800 Y0.71570
X0.36900 Y0.71570
X0.36900 Y0.72370
X0.37000 Y0.72370
X0.37000 Y0.72670
X0.37100 Y0.72670
X0.37100 Y0.73070
X0.37200 Y0.73070
X0.37200 Y0.73370
X0.37300 Y0.73370
X0.37300 Y0.73670
X0.37400 Y0.73670
X0.37400 Y0.73870
X0.37500 Y0.73870
X0.37500 Y0.73970
X0.37600 Y0.73970
X0.37600 Y0.74170
X0.37700 Y0.74170
X0.37700 Y0.74370
X0.37800 Y0.74370
X0.37800 Y0.74570
X0.37900 Y0.74570
X0.37900 Y0.74770
X0.38000 Y0.74770
X0.38000 Y0.74970
X0.38100 Y0.74970
X0.38100 Y0.75070
X0.38200 Y0.75070
X0.38200 Y0.75270
X0.38300 Y0.75270
X0.38300 Y0.75370
X0.38400 Y0.75370
X0.38400 Y0.75570
X0.38500 Y0.75570
X0.38500 Y0.75670
X0.38600 Y0.75670
X0.38600 Y0.75770
X0.38700 Y0.75770
X0.38700 Y0.75870
X0.38800 Y0.75870
X0.38800 Y0.75970
X0.38900 Y0.75970
X0.38900 Y0.76070
X0.39000 Y0.76070
X0.39000 Y0.76170
X0.39100 Y0.76170
X0.39100 Y0.76270
X0.39200 Y0.76270
X0.39200 Y0.76370
X0.39300 Y0.76370
X0.39300 Y0.76470
X0.39400 Y0.76470
X0.39400 Y0.76570
X0.39500 Y0.76570
X0.39500 Y0.76670
X0.39600 Y0.76670
X0.39600 Y0.76770
X0.39700 Y0.76770
X0.39700 Y0.76870
X0.39800 Y0.76870
X0.39800 Y0.76970
X0.39900 Y0.76970
X0.39900 Y0.77070
X0.40000 Y0.77070
X0.40000 Y0.77170
X0.40100 Y0.77170
X0.40100 Y0.77270
X0.40200 Y0.77270
X0.40200 Y0.77370
X0.40300 Y0.77370
X0.40300 Y0.77470
X0.40400 Y0.77470
X0.40400 Y0.77570
X0.40500 Y0.77570
X0.40500 Y0.77670
X0.40600 Y0.77670
X0.40600 Y0.77770
X0.40800 Y0.77770
X0.40800 Y0.77870
X0.40900 Y0.77870
X0.40900 Y0.77970
X0.41100 Y0.77970
X0.41100 Y0.78070
X0.41200 Y0.78070
X0.41200 Y0.78170
X0.41300 Y0.78170
X0.41300 Y0.78270
X0.41500 Y0.78270
X0.41500 Y0.78370
X0.41700 Y0.78370
X0.41700 Y0.78470
X0.42000 Y0.78470
X0.42000 Y0.78570
X0.42200 Y0.78570
X0.42200 Y0.78670
X0.42300 Y0.78670
X0.42300 Y0.78770
X0.42500 Y0.78770
X0.42500 Y0.78870
X0.42800 Y0.78870
X0.42800 Y0.78970
X0.43100 Y0.78970
X0.43100 Y0.79070
X0.43500 Y0.79070
X0.43500 Y0.79170
X0.43800 Y0.79170
X0.43800 Y0.79270
X0.44000 Y0.79270
X0.44000 Y0.79370
X0.44300 Y0.79370
X0.44300 Y0.79470
X0.44500 Y0.79470
X0.44500 Y0.79570
X0.45400 Y0.79570
X0.45400 Y0.79670
X0.48900 Y0.79670
X0.48900 Y0.79570
X0.49800 Y0.79570
X0.49800 Y0.79470
X0.50000 Y0.79470
X0.50000 Y0.79370
X0.50300 Y0.79370
X0.50300 Y0.79270
X0.50500 Y0.79270
X0.50500 Y0.79170
X0.50800 Y0.79170
X0.50800 Y0.79070
X0.51200 Y0.79070
X0.51200 Y0.78970
X0.51500 Y0.78970
X0.51500 Y0.78870
X0.51800 Y0.78870
X0.51800 Y0.78770
G04 P0 ( dwell for no time -- G64 should not smooth over this point )
G00 Z1.00000 ( retract )

G00 X0.20900 Y0.73670 ( rapid move to begin. )
G01 Z0.00100 F2.00000 ( plunge. )
G04 P0 ( dwell for no time -- G64 should not smooth over this point )
X0.20900 Y0.73670
X0.20900 Y0.69870
X0.19800 Y0.69870
X0.19800 Y0.69770
X0.19700 Y0.69770
X0.19700 Y0.65270
X0.19600 Y0.65270
X0.19600 Y0.65170
X0.19500 Y0.65170
X0.19500 Y0.63170
X0.19400 Y0.63170
X0.19400 Y0.62770
X0.19300 Y0.62770
X0.19300 Y0.62170
X0.19200 Y0.62170
X0.19200 Y0.58870
X0.19300 Y0.58870
X0.19300 Y0.50370
X0.19400 Y0.50370
X0.19400 Y0.45170
X0.19500 Y0.45170
X0.19500 Y0.44770
X0.19600 Y0.44770
X0.19600 Y0.44470
X0.19700 Y0.44470
X0.19700 Y0.31570
X0.20300 Y0.31570
X0.20300 Y0.27470
X0.19100 Y0.27470
X0.19100 Y0.27370
X0.18900 Y0.27370
X0.18900 Y0.27270
X0.18700 Y0.27270
X0.18700 Y0.27170
X0.18400 Y0.27170
X0.18400 Y0.27070
X0.16100 Y0.27070
X0.16100 Y0.27170
X0.15800 Y0.27170
X0.15800 Y0.27270
X0.15600 Y0.27270
X0.15600 Y0.27370
X0.15400 Y0.27370
X0.15400 Y0.27470
X0.14500 Y0.27470
X0.14500 Y0.27570
X0.14400 Y0.27570
X0.14400 Y0.31470
X0.14500 Y0.31470
X0.14500 Y0.31570
X0.14800 Y0.31570
X0.14800 Y0.72370
X0.14900 Y0.72370
X0.14900 Y0.72670
X0.15000 Y0.72670
X0.15000 Y0.72870
X0.15100 Y0.72870
X0.15100 Y0.73070
X0.15200 Y0.73070
X0.15200 Y0.73170
X0.15300 Y0.73170
X0.15300 Y0.73270
X0.15400 Y0.73270
X0.15400 Y0.74370
X0.16700 Y0.74370
X0.16700 Y0.74470
X0.17000 Y0.74470
X0.17000 Y0.74570
X0.19300 Y0.74570
X0.19300 Y0.74470
X0.19600 Y0.74470
X0.19600 Y0.74370
X0.20900 Y0.74370
X0.20900 Y0.73670
G04 P0 ( dwell for no time -- G64 should not smooth over this point )
G00 Z1.00000 ( retract )

G00 X0.30900 Y0.69770 ( rapid move to begin. )
G01 Z0.00100 F2.00000 ( plunge. )
G04 P0 ( dwell for no time -- G64 should not smooth over this point )
X0.30900 Y0.69770
X0.30900 Y0.66170
X0.30300 Y0.66170
X0.30300 Y0.61970
X0.30200 Y0.61970
X0.30200 Y0.61670
X0.30100 Y0.61670
X0.30100 Y0.61470
X0.30000 Y0.61470
X0.30000 Y0.61370
X0.29900 Y0.61370
X0.29900 Y0.61270
X0.29800 Y0.61270
X0.29800 Y0.61170
X0.29700 Y0.61170
X0.29700 Y0.61070
X0.29600 Y0.61070
X0.29600 Y0.60970
X0.29500 Y0.60970
X0.29500 Y0.60870
X0.29400 Y0.60870
X0.29400 Y0.59270
X0.25300 Y0.59270
X0.25300 Y0.65370
X0.26100 Y0.65370
X0.26100 Y0.66170
X0.25400 Y0.66170
X0.25400 Y0.70670
X0.30900 Y0.70670
X0.30900 Y0.69770
G04 P0 ( dwell for no time -- G64 should not smooth over this point )
G00 Z1.00000 ( retract )

G00 X0.23400 Y0.64470 ( rapid move to begin. )
G01 Z0.00100 F2.00000 ( plunge. )
G04 P0 ( dwell for no time -- G64 should not smooth over this point )
X0.23400 Y0.64470
X0.23400 Y0.62970
X0.23500 Y0.62970
X0.23500 Y0.62670
X0.23600 Y0.62670
X0.23600 Y0.60070
X0.23700 Y0.60070
X0.23700 Y0.55470
X0.23800 Y0.55470
X0.23800 Y0.51770
X0.23900 Y0.51770
X0.23900 Y0.48870
X0.24000 Y0.48870
X0.24000 Y0.47870
X0.24100 Y0.47870
X0.24100 Y0.45170
X0.24000 Y0.45170
X0.24000 Y0.44870
X0.23900 Y0.44870
X0.23900 Y0.44670
X0.23800 Y0.44670
X0.23800 Y0.44570
X0.23700 Y0.44570
X0.23700 Y0.44470
X0.23600 Y0.44470
X0.23600 Y0.44370
X0.23500 Y0.44370
X0.23500 Y0.44270
X0.23400 Y0.44270
X0.23400 Y0.44170
X0.23200 Y0.44170
X0.23200 Y0.44070
X0.23000 Y0.44070
X0.23000 Y0.43970
X0.20100 Y0.43970
X0.20100 Y0.44070
X0.19900 Y0.44070
X0.19900 Y0.44170
X0.19700 Y0.44170
X0.19700 Y0.44470
X0.19600 Y0.44470
X0.19600 Y0.44770
X0.19500 Y0.44770
X0.19500 Y0.45170
X0.19400 Y0.45170
X0.19400 Y0.50370
X0.19300 Y0.50370
X0.19300 Y0.58870
X0.19200 Y0.58870
X0.19200 Y0.62170
X0.19300 Y0.62170
X0.19300 Y0.62770
X0.19400 Y0.62770
X0.19400 Y0.63170
X0.19500 Y0.63170
X0.19500 Y0.65170
X0.19600 Y0.65170
X0.19600 Y0.65270
X0.19700 Y0.65270
X0.19700 Y0.65370
X0.23400 Y0.65370
X0.23400 Y0.64470
G04 P0 ( dwell for no time -- G64 should not smooth over this point )
G00 Z1.00000 ( retract )

G00 X0.29400 Y0.56570 ( rapid move to begin. )
G01 Z0.00100 F2.00000 ( plunge. )
G04 P0 ( dwell for no time -- G64 should not smooth over this point )
X0.29400 Y0.56570
X0.29400 Y0.55970
X0.29500 Y0.55970
X0.29500 Y0.55870
X0.29600 Y0.55870
X0.29600 Y0.55670
X0.29700 Y0.55670
X0.29700 Y0.55470
X0.29800 Y0.55470
X0.29800 Y0.55170
X0.29900 Y0.55170
X0.29900 Y0.51870
X0.29900 Y0.51870
X0.29900 Y0.51070
X0.30000 Y0.51070
X0.30000 Y0.50170
X0.30100 Y0.50170
X0.30100 Y0.49270
X0.30200 Y0.49270
X0.30200 Y0.48370
X0.30300 Y0.48370
X0.30300 Y0.42370
X0.30900 Y0.42370
X0.30900 Y0.42270
X0.31000 Y0.42270
X0.31000 Y0.41870
X0.31100 Y0.41870
X0.31100 Y0.35170
X0.31000 Y0.35170
X0.31000 Y0.34770
X0.30800 Y0.34770
X0.30800 Y0.34670
X0.21400 Y0.34670
X0.21400 Y0.42370
X0.25400 Y0.42370
X0.25400 Y0.44670
X0.25300 Y0.44670
X0.25300 Y0.44770
X0.25200 Y0.44770
X0.25200 Y0.44870
X0.25100 Y0.44870
X0.25100 Y0.44970
X0.25000 Y0.44970
X0.25000 Y0.45070
X0.24900 Y0.45070
X0.24900 Y0.45270
X0.24800 Y0.45270
X0.24800 Y0.45570
X0.24700 Y0.45570
X0.24700 Y0.48270
X0.24800 Y0.48270
X0.24800 Y0.48570
X0.24900 Y0.48570
X0.24900 Y0.48770
X0.25000 Y0.48770
X0.25000 Y0.48870
X0.25100 Y0.48870
X0.25100 Y0.49170
X0.25000 Y0.49170
X0.25000 Y0.50070
X0.24900 Y0.50070
X0.24900 Y0.53570
X0.25000 Y0.53570
X0.25000 Y0.55170
X0.25100 Y0.55170
X0.25100 Y0.55470
X0.25200 Y0.55470
X0.25200 Y0.55670
X0.25300 Y0.55670
X0.25300 Y0.57470
X0.29400 Y0.57470
X0.29400 Y0.56570
G04 P0 ( dwell for no time -- G64 should not smooth over this point )
G00 Z1.00000 ( retract )

G00 X0.20300 Y0.24670 ( rapid move to begin. )
G01 Z0.00100 F2.00000 ( plunge. )
G04 P0 ( dwell for no time -- G64 should not smooth over this point )
X0.20300 Y0.24670
X0.20300 Y0.21470
X0.19700 Y0.21470
X0.19700 Y0.18070
X0.19600 Y0.18070
X0.19600 Y0.14070
X0.24500 Y0.14070
X0.24500 Y0.04570
X0.19300 Y0.04570
X0.19300 Y0.06870
X0.15900 Y0.06870
X0.15900 Y0.06970
X0.15600 Y0.06970
X0.15600 Y0.07070
X0.15400 Y0.07070
X0.15400 Y0.07170
X0.15200 Y0.07170
X0.15200 Y0.07270
X0.15100 Y0.07270
X0.15100 Y0.07370
X0.15000 Y0.07370
X0.15000 Y0.07470
X0.14900 Y0.07470
X0.14900 Y0.07670
X0.14800 Y0.07670
X0.14800 Y0.08270
X0.14700 Y0.08270
X0.14700 Y0.13270
X0.14800 Y0.13270
X0.14800 Y0.14070
X0.14700 Y0.14070
X0.14700 Y0.19770
X0.14800 Y0.19770
X0.14800 Y0.21470
X0.14500 Y0.21470
X0.14500 Y0.21570
X0.14400 Y0.21570
X0.14400 Y0.25470
X0.14500 Y0.25470
X0.14500 Y0.25570
X0.20300 Y0.25570
X0.20300 Y0.24670

G04 P0 ( dwell for no time -- G64 should not smooth over this point )
G00 Z1.00000 ( retract )

M9 ( Coolant off. )
M2 ( Program end. )

