( pcb2gcode 1.1.4 )

G94     ( Inches per minute feed rate. )
G20     ( Units == INCHES.             )
G90     ( Absolute coordinates.        )
S2000  ( RPM spindle speed.           )
M3      ( Spindle on clockwise.        )

G64 P0.00500 ( set maximum deviation from commanded toolpath )

G04 P0 ( dwell for no time -- G64 should not smooth over this point )
G00 Z1.00000 ( retract )

G00 X0.59100 Y1.12170 ( rapid move to begin. )
G01 Z0.00100 F2.00000 ( plunge. )
G04 P0 ( dwell for no time -- G64 should not smooth over this point )
X0.59100 Y1.12170
X0.59200 Y1.12170
X0.59200 Y1.11970
X0.59300 Y1.11970
X0.59300 Y1.04570
X0.59200 Y1.04570
X0.59200 Y0.02370
X0.59100 Y0.02370
X0.59100 Y0.02170
X0.59000 Y0.02170
X0.59000 Y0.02070
X0.04400 Y0.02070
X0.04400 Y0.02170
X0.04200 Y0.02170
X0.04200 Y0.02270
X0.04100 Y0.02270
X0.04100 Y0.02370
X0.04000 Y0.02370
X0.04000 Y0.02570
X0.03900 Y0.02570
X0.03900 Y0.99970
X0.04000 Y0.99970
X0.04000 Y1.00170
X0.04100 Y1.00170
X0.04100 Y1.00270
X0.04200 Y1.00270
X0.04200 Y1.00370
X0.04300 Y1.00370
X0.04300 Y1.00470
X0.04400 Y1.00470
X0.04400 Y1.00570
X0.04500 Y1.00570
X0.04500 Y1.00670
X0.04600 Y1.00670
X0.04600 Y1.00770
X0.04700 Y1.00770
X0.04700 Y1.00870
X0.04800 Y1.00870
X0.04800 Y1.00970
X0.04900 Y1.00970
X0.04900 Y1.01070
X0.05000 Y1.01070
X0.05000 Y1.01170
X0.05100 Y1.01170
X0.05100 Y1.01270
X0.05200 Y1.01270
X0.05200 Y1.01370
X0.05300 Y1.01370
X0.05300 Y1.01470
X0.05400 Y1.01470
X0.05400 Y1.01570
X0.05500 Y1.01570
X0.05500 Y1.01670
X0.05600 Y1.01670
X0.05600 Y1.01770
X0.05700 Y1.01770
X0.05700 Y1.01870
X0.05800 Y1.01870
X0.05800 Y1.01970
X0.05900 Y1.01970
X0.05900 Y1.02070
X0.06000 Y1.02070
X0.06000 Y1.02170
X0.06100 Y1.02170
X0.06100 Y1.02270
X0.06200 Y1.02270
X0.06200 Y1.02370
X0.06300 Y1.02370
X0.06300 Y1.02470
X0.06400 Y1.02470
X0.06400 Y1.02570
X0.06500 Y1.02570
X0.06500 Y1.02670
X0.06600 Y1.02670
X0.06600 Y1.02770
X0.06700 Y1.02770
X0.06700 Y1.02870
X0.06800 Y1.02870
X0.06800 Y1.02970
X0.06900 Y1.02970
X0.06900 Y1.03070
X0.07000 Y1.03070
X0.07000 Y1.03170
X0.07100 Y1.03170
X0.07100 Y1.03270
X0.07200 Y1.03270
X0.07200 Y1.03370
X0.07300 Y1.03370
X0.07300 Y1.03470
X0.07400 Y1.03470
X0.07400 Y1.03570
X0.07500 Y1.03570
X0.07500 Y1.03670
X0.07600 Y1.03670
X0.07600 Y1.03770
X0.07700 Y1.03770
X0.07700 Y1.03870
X0.07800 Y1.03870
X0.07800 Y1.03970
X0.07900 Y1.03970
X0.07900 Y1.04070
X0.08000 Y1.04070
X0.08000 Y1.04170
X0.08100 Y1.04170
X0.08100 Y1.04270
X0.08200 Y1.04270
X0.08200 Y1.04370
X0.08300 Y1.04370
X0.08300 Y1.04470
X0.08400 Y1.04470
X0.08400 Y1.04570
X0.08500 Y1.04570
X0.08500 Y1.04670
X0.08600 Y1.04670
X0.08600 Y1.04770
X0.08700 Y1.04770
X0.08700 Y1.04870
X0.08800 Y1.04870
X0.08800 Y1.04970
X0.08900 Y1.04970
X0.08900 Y1.05070
X0.09000 Y1.05070
X0.09000 Y1.05170
X0.09100 Y1.05170
X0.09100 Y1.05270
X0.09200 Y1.05270
X0.09200 Y1.05370
X0.09300 Y1.05370
X0.09300 Y1.05470
X0.09400 Y1.05470
X0.09400 Y1.05570
X0.09500 Y1.05570
X0.09500 Y1.05670
X0.09600 Y1.05670
X0.09600 Y1.05770
X0.09700 Y1.05770
X0.09700 Y1.05870
X0.09800 Y1.05870
X0.09800 Y1.05970
X0.09900 Y1.05970
X0.09900 Y1.06070
X0.10000 Y1.06070
X0.10000 Y1.06170
X0.10100 Y1.06170
X0.10100 Y1.06270
X0.10200 Y1.06270
X0.10200 Y1.06370
X0.10300 Y1.06370
X0.10300 Y1.06470
X0.10400 Y1.06470
X0.10400 Y1.06570
X0.10500 Y1.06570
X0.10500 Y1.06670
X0.10600 Y1.06670
X0.10600 Y1.06770
X0.10700 Y1.06770
X0.10700 Y1.06870
X0.10800 Y1.06870
X0.10800 Y1.06970
X0.10900 Y1.06970
X0.10900 Y1.07070
X0.11000 Y1.07070
X0.11000 Y1.07170
X0.11100 Y1.07170
X0.11100 Y1.07270
X0.11200 Y1.07270
X0.11200 Y1.07370
X0.11300 Y1.07370
X0.11300 Y1.07470
X0.11400 Y1.07470
X0.11400 Y1.07570
X0.11500 Y1.07570
X0.11500 Y1.07670
X0.11600 Y1.07670
X0.11600 Y1.07770
X0.11700 Y1.07770
X0.11700 Y1.07870
X0.11800 Y1.07870
X0.11800 Y1.07970
X0.11900 Y1.07970
X0.11900 Y1.08070
X0.12000 Y1.08070
X0.12000 Y1.08170
X0.12100 Y1.08170
X0.12100 Y1.08270
X0.12200 Y1.08270
X0.12200 Y1.08370
X0.12300 Y1.08370
X0.12300 Y1.08470
X0.12400 Y1.08470
X0.12400 Y1.08570
X0.12500 Y1.08570
X0.12500 Y1.08670
X0.12600 Y1.08670
X0.12600 Y1.08770
X0.12700 Y1.08770
X0.12700 Y1.08870
X0.12800 Y1.08870
X0.12800 Y1.08970
X0.12900 Y1.08970
X0.12900 Y1.09070
X0.13000 Y1.09070
X0.13000 Y1.09170
X0.13100 Y1.09170
X0.13100 Y1.09270
X0.13200 Y1.09270
X0.13200 Y1.09370
X0.13300 Y1.09370
X0.13300 Y1.09470
X0.13400 Y1.09470
X0.13400 Y1.09570
X0.13500 Y1.09570
X0.13500 Y1.09670
X0.13600 Y1.09670
X0.13600 Y1.09770
X0.13700 Y1.09770
X0.13700 Y1.09870
X0.13800 Y1.09870
X0.13800 Y1.09970
X0.13900 Y1.09970
X0.13900 Y1.10070
X0.14000 Y1.10070
X0.14000 Y1.10170
X0.14100 Y1.10170
X0.14100 Y1.10270
X0.14200 Y1.10270
X0.14200 Y1.10370
X0.14300 Y1.10370
X0.14300 Y1.10470
X0.14400 Y1.10470
X0.14400 Y1.10570
X0.14500 Y1.10570
X0.14500 Y1.10670
X0.14600 Y1.10670
X0.14600 Y1.10770
X0.14700 Y1.10770
X0.14700 Y1.10870
X0.14800 Y1.10870
X0.14800 Y1.10970
X0.14900 Y1.10970
X0.14900 Y1.11070
X0.15000 Y1.11070
X0.15000 Y1.11170
X0.15100 Y1.11170
X0.15100 Y1.11270
X0.15200 Y1.11270
X0.15200 Y1.11370
X0.15300 Y1.11370
X0.15300 Y1.11470
X0.15400 Y1.11470
X0.15400 Y1.11570
X0.15500 Y1.11570
X0.15500 Y1.11670
X0.15600 Y1.11670
X0.15600 Y1.11770
X0.15700 Y1.11770
X0.15700 Y1.11870
X0.15800 Y1.11870
X0.15800 Y1.11970
X0.15900 Y1.11970
X0.15900 Y1.12070
X0.16000 Y1.12070
X0.16000 Y1.12170
X0.16100 Y1.12170
X0.16100 Y1.12270
X0.16200 Y1.12270
X0.16200 Y1.12370
X0.16400 Y1.12370
X0.16400 Y1.12470
X0.58800 Y1.12470
X0.58800 Y1.12370
X0.59000 Y1.12370
X0.59000 Y1.12270
X0.59100 Y1.12270
X0.59100 Y1.12170

G04 P0 ( dwell for no time -- G64 should not smooth over this point )
G00 Z1.00000 ( retract )

M9 ( Coolant off. )
M2 ( Program end. )

